X: 1
T: When the Saints Go Marching In
P: piffero primo a0582
O: internet
%R: march
F: http://ancients.sudburymuster.org/mus/sng/pdf/whensaints1C0.pdf
F: http://ancients.sudburymuster.org/mus/sng/pdf/whensaintsC0.pdf
Z: 2020 John Chambers <jc:trillian.mit.edu>
M: 4/4
L: 1/8
K: G
"^verse"BA |\
G2G2 B2d2 | dc4- cee | d2B2 G2B2 | A6 BA |\
G2G2 B2d2 | dc4- cee | d2B2 A2A2 | G4- G"^chorus"GBc |
d4- dGBc | d4- dGBc | d2B2 G2B2 | A6 BA |\
G3G B2d2 | ec4- cee | d2B2 G2A2 | G4- Gz :|
